static/images/logos/potato.svg

<svg height="70" viewBox="0 0 316 70" width="316" xmlns="http://www.w3.org/2000/svg"><path d="m281.2 2.2c-18.8 0-33.9 14.3-33.9 33.7 0 19.3 15 33.7 33.9 33.7s33.9-14.4 33.9-33.7c0-19.4-15.2-33.7-33.9-33.7zm0 60.6c-14.7 0-26.5-11.9-26.5-26.9s11.8-26.9 26.5-26.9 26.5 11.9 26.5 26.9-11.9 26.9-26.5 26.9zm-252.7-54.9c-4.4-3.8-9.9-4.6-16.4-4.6h-11.8v65.2h7.2v-28.3h6.4c14.9 0 20.6-9.1 20.6-18.3 0-4.1-1.2-9.9-6-14zm-15 25.4h-6v-23.2h5.4c4.7 0 14.4 1 14.4 11.3-.1 7.6-5.2 11.9-13.8 11.9zm61.7-31.1c-18.8 0-33.9 14.3-33.9 33.7 0 19.3 15 33.7 33.9 33.7s33.9-14.4 33.9-33.7c0-19.4-15.1-33.7-33.9-33.7zm0 60.6c-14.7 0-26.5-11.9-26.5-26.9s11.8-26.9 26.5-26.9 26.5 11.9 26.5 26.9-11.8 26.9-26.5 26.9zm75.6-59.5h-38.9v6.8h15.8v58.3h7.2v-58.3h15.8v-6.8zm-2.2 65.2h8l7.8-18.4h27.8l7.6 18.4h8l-29.2-68.3zm18.7-25.2 11.1-26.1 10.9 26.1zm38.3-33.2h15.8v58.3h7.2v-58.3h15.8v-6.8h-38.9v6.8z" fill="#2c242e" fill-rule="evenodd"/></svg>

<?xml version="1.0" encoding="UTF-8"?>
<svg width="316px" height="70px" viewBox="0 0 316 70" version="1.1" xmlns="http://www.w3.org/2000/svg" xmlns:xlink="http://www.w3.org/1999/xlink">
    <!-- Generator: Sketch 50 (54983) - http://www.bohemiancoding.com/sketch -->
    <title>Shape</title>
    <desc>Created with Sketch.</desc>
    <defs></defs>
    <g id="Page-1" stroke="none" stroke-width="1" fill="none" fill-rule="evenodd">
        <path d="M281.2,2.2 C262.4,2.2 247.3,16.5 247.3,35.9 C247.3,55.2 262.3,69.6 281.2,69.6 C300.1,69.6 315.1,55.2 315.1,35.9 C315.1,16.5 299.9,2.2 281.2,2.2 Z M281.2,62.8 C266.5,62.8 254.7,50.9 254.7,35.9 C254.7,20.9 266.5,9 281.2,9 C295.9,9 307.7,20.9 307.7,35.9 C307.7,50.9 295.8,62.8 281.2,62.8 Z M28.5,7.9 C24.1,4.1 18.6,3.3 12.1,3.3 L0.3,3.3 L0.3,68.5 L7.5,68.5 L7.5,40.2 L13.9,40.2 C28.8,40.2 34.5,31.1 34.5,21.9 C34.5,17.8 33.3,12 28.5,7.9 Z M13.5,33.3 L7.5,33.3 L7.5,10.1 L12.9,10.1 C17.6,10.1 27.3,11.1 27.3,21.4 C27.2,29 22.1,33.3 13.5,33.3 Z M75.2,2.2 C56.4,2.2 41.3,16.5 41.3,35.9 C41.3,55.2 56.3,69.6 75.2,69.6 C94.1,69.6 109.1,55.2 109.1,35.9 C109.1,16.5 94,2.2 75.2,2.2 Z M75.2,62.8 C60.5,62.8 48.7,50.9 48.7,35.9 C48.7,20.9 60.5,9 75.2,9 C89.9,9 101.7,20.9 101.7,35.9 C101.7,50.9 89.9,62.8 75.2,62.8 Z M150.8,3.3 L111.9,3.3 L111.9,10.1 L127.7,10.1 L127.7,68.4 L134.9,68.4 L134.9,10.1 L150.7,10.1 L150.7,3.3 L150.8,3.3 Z M148.6,68.5 L156.6,68.5 L164.4,50.1 L192.2,50.1 L199.8,68.5 L207.8,68.5 L178.6,0.2 L148.6,68.5 Z M167.3,43.3 L178.4,17.2 L189.3,43.3 L167.3,43.3 Z M205.6,10.1 L221.4,10.1 L221.4,68.4 L228.6,68.4 L228.6,10.1 L244.4,10.1 L244.4,3.3 L205.5,3.3 L205.5,10.1 L205.6,10.1 Z" id="Shape" fill="#2C242E"></path>
    </g>
</svg>
